X:1
T:Cádiz, 76.76 D
T:Cádiz, 76.76 D
T:Victor H. Benke, 1902
T:Public Domain Courtesy of the Cyber Hymnal™
C:Victor H. Benke, 1902
Z:Public Domain
Z:Courtesy of the Cyber Hymnal™
%%score ( 1 2 ) ( 3 4 )
L:1/8
Q:1/4=106
M:6/8
K:F
V:1 treble 
V:2 treble 
V:3 bass 
V:4 bass 
V:1
 C | [CF]2 [EG] [FA]2 [Fc] | [Fd]3 [Fc]2 [FA] | [FA]2 [FA] (Ac)[EG] | [FA]3- [FA]2 C | %5
 [CF]2 [EG] [FA]2 [Ac] | [Bd]3 [Ac]2 [FA] | [FG]2 [FG] (Gd)[FG] | c3- [Gc]2 [Ec] | %9
 [Fc]2 [FA] [Ec]2 [CE] | [CF]3 C2 [CF] | [DG]2 [DG] [Ed]2 [Ec] | c3- [Fc]2 [EB] | %13
 [FA]2 [FA] [Gc]2 [Gc] | [Ff]3 !fermata![Fd]2 [FB] | [FA] [Fc]2 [DF]2 [EG] | F3- F2 |] %17
V:2
 C | x6 | x6 | x3 E2 x | x5 C | x6 | x6 | x3 F2 x | E2 F x3 | x6 | x3 C2 x | x6 | F2 E x3 | x6 | %14
 x6 | x6 | F3- F2 |] %17
V:3
 [F,A,] | [F,A,]2 [F,B,] [F,C]2 [F,A,] | [F,B,]3 [F,A,]2 [F,C] | [D,C]2 [D,=B,] [C,_B,]2 [C,C] | %4
 [F,C]3- [F,C]2 [F,A,] | [F,A,]2 [F,B,] [F,C]2 [F,F] | [F,F]3 [F,F]2 [F,C] | %7
 [D,C]2 [D,=B,] [G,B,]2 [G,B,] | (C2 =B, [C,_B,]2) [C,B,] | [F,A,]2 [F,C] [C,C]2 [C,B,] | %10
 [F,A,]3 [F,A,]2 [F,A,] | [F,B,]2 [F,B,] [G,B,]2 [C,B,] | ([F,A,]2 [G,B,] [A,C]2) [G,C] | %13
 [F,C]2 [F,C] [E,C]2 [E,G,] | [D,A,]3 !fermata![B,,B,]2 [B,,D] | [C,C] [C,A,]2 [C,B,]2 [C,B,] | %16
 [F,A,]3- [F,A,]2 |] %17
V:4
 x | x6 | x6 | x6 | x6 | x6 | x6 | x6 | C,3- x3 | x6 | x6 | x6 | x6 | x6 | x6 | x6 | x5 |] %17

